icon-themes/sifr_svg/cmd/sc_snapborder.svg

<svg viewBox="0 0 16 16" xmlns="http://www.w3.org/2000/svg"><path d="m6 1v2h2v-2zm3 0v2h3c1.1 0 2 .9 2 2s-.9 2-2 2h-3v2h3c2.2 0 4-1.8 4-4s-1.8-4-4-4zm-4 1-3 3v10h12v-5h-2v3h-8v-7h1zm1 5v2h2v-2z" fill="#555753"/></svg>

<svg xmlns="http://www.w3.org/2000/svg" viewBox="0 0 16 16">
  <path
     style="fill:#555753"
     d="M 6 1 L 6 3 L 8 3 L 8 1 L 6 1 z M 9 1 L 9 3 L 12 3 C 13.1 3 14 3.9 14 5 C 14 6.1 13.1 7 12 7 L 9 7 L 9 9 L 12 9 C 14.2 9 16 7.2 16 5 C 16 2.8 14.2 1 12 1 L 9 1 z M 5 2 L 2 5 L 2 15 L 14 15 L 14 10 L 12 10 L 12 13 L 4 13 L 4 6 L 5 6 L 5 2 z M 6 7 L 6 9 L 8 9 L 8 7 L 6 7 z "
     />
</svg>
